X:1
T:Title
L:1/8
M:4/4
I:linebreak $
K:D
V:1 treble nm="Voice"
V:1
"D" dfaf"G" gfeg |"D" fdAG FGA=c |"G" BGFG EFGg |"D" fdec"G" dcBA |"D" dfaf"G" gfeg | %5
"D" fdAG FGA=c |"G" BGFG EFGg |"D" fd"A"ec"D" d4 ::"D" a2 af dfaf | dfaf"G" bagf | g2 ge"C" =cege | %11
 =cege"D" afgf |"D" a2 af dfaf | dfaf"G" bagf | g2 gf gbag |"D" fd"A"ec"D" d4 :| %16
